!!!!SEGMENT: pl-kk--i-540--001-003_rychling-wincenty-waclaw--kompleta-no-ii-psalm-30-in-te-domine-speravi.krn
!!!cenid: 18xx:4463
!!!COM: Rychling, Wincenty Wacław
!!!COM-rismID: pe50046026
!!!CDT: 1841/01/09-1896/01/11
!!!CNT: Polish
!!!GTL: Kompleta
!!!OTL: No. II. Psalm 30. In te Domine speravi
!!!OMV: 003
!!!PDT:
!!!AGN: Sacred
!!!YEC: Copyright 2022 Narodowy Instytut Fryderyka Chopina (https://polishscores.org)
!!!YEM: License CC-BY-4.0 (https://creativecommons.org/licenses/by/4.0)
!!!SMS-siglum: PL-Kk
!!!SMS-shelfmark: I.540
!!!SMS-variant: Partytura PL-Kk I.540:2-3
!!!SMS-altvar: Tenor I PL-Kk I.540:8; Tenor II PL-Kk I.540:10; Bas I PL-Kk I.540:12; Bas II PL-Kk I.540:14
!!!SMS-shelfwork: 001-003 G
!!!NIFC-rismSourceID: 1001210701
!!!NIFC-rismChildID: 1001210710
!!!NIFC-islandoraID: pl-kk:16958
!!!URL-pdf-islandora: https://repozytorium.nifc.pl/islandora/object/pl-kk%3A16958/datastream/PDF/view
!!!URL-scan: https://polish.musicsources.pl/pl/lokalizacje/galeria/rekopisy/7167/2 @EN{Scan on Polish Music Sources Website} @PL{Skany w portalu Dziedzictwo Muzyki Polskiej w otwartym dostępie}
!!!IIIF:
!!!ONB-nifc: UWAGA: wg partytury, skan 2-3. Proszę uzupełnić SMS:variant (partytura) i SMS:altvar (głosy) wg instrukcji w wątku #53.
!!!OMD:
!!!AIN: 2 male
!!!key: g
**kern	**text	**text	**text	**kern	**text	**text	**text
*part2	*part2	*part2	*part2	*part1	*part1	*part1	*part1
*staff2	*staff2	*staff2	*staff2	*staff1	*staff1	*staff1	*staff1
*I"[Voice]	*	*	*	*I"[Voice]	*	*	*
*Imale	*	*	*	*Imale	*	*	*
*ICvox	*	*	*	*ICvox	*	*	*
*clefF4	*	*	*	*clefG2	*	*	*
*	*	*	*	*ITrd8c12	*	*	*
*k[b-e-]	*	*	*	*k[b-e-]	*	*	*
*g:	*	*	*	*g:	*	*	*
*M4/4	*	*	*	*M4/4	*	*	*
*met(c)	*	*	*	*met(c)	*	*	*
=1	=1	=1	=1	=1	=1	=1	=1
*^	*	*	*	*^	*	*	*
*	*	*	*v:2	*v:3	*	*	*v:1	*	*
!!LO:TX:t=P:problem=all/left
!!LO:TX:t=P:problem=all\right
4.G/	4.G\	.	In-	Es	4.G/	4.G\	In	.	.
8G/	8G\	.	-cli-	to	8B-/	8G\	te	.	.
4G/	4G\	.	-na	mi-	4d/	4B-\	Do-	.	.
4G/	4G\	.	.	-hi	4d/	4B-\	-mi-	.	.
=2	=2	=2	=2	=2	=2	=2	=2	=2	=2
4G/	4G\	.	ad	in	4d/	4B-\	-ne	.	.
4G/	4F\	.	.	De-	4d/	4B-\	spe-	.	.
*	*2\right	*	*	*	*	*2\right	*	*	*
2G/	2E-\	.	.	-um	2e-/	2B-\	-ra-	.	.
=3	=3	=3	=3	=3	=3	=3	=3	=3	=3
4F/	4BB-\	.	me	pro-	4d/	4B-\	-vi	.	.
4r	4ryy	.	.	.	4r	4ryy	.	.	.
4F/	4BB-\	.	au-	-tec-	4d/	4B-\	non	.	.
8G/L	4BB-\	.	-rem	-to-	4d/	4B-\	con-	.	.
8F/J	.	.	.	-rem in	.	.	.	.	.
!!LO:LB:g=original
=4	=4	=4	=4	=4	=4	=4	=4	=4	=4
4En/	4C\	.	.	do-	4d/	4B-\	-fun-	.	.
4E/	4C\	.	.	.	4c/	4B-\	-dar	.	.
4F/	4F\	.	.	-mum	4c/	4A\	in	.	.
4F/	4BB-\	.	.	.	4d/	4B-\	ae-	.	.
=5	=5	=5	=5	=5	=5	=5	=5	=5	=5
4F/	1C	.	tu-	re-	1c	1G	-ter-	.	.
4En/	.	.	.	.	.	.	.	.	.
4D/	.	.	.	-fu-	.	.	.	.	.
4E/	.	.	.	.	.	.	.	.	.
=6	=6	=6	=6	=6	=6	=6	=6	=6	=6
4F/	4F\	.	-am	-gii	4c/	4A\	-num	.	.
4r	4ryy	.	.	.	4r	4ryy	.	.	.
4F/	4F\	.	ac-	.	4F/	4F\	in	.	.
4F/	4F\	.	.	ut	4A/	4F\	ju-	.	.
=7	=7	=7	=7	=7	=7	=7	=7	=7	=7
4.F/	4.F\	.	-ce-	sal-	4.c/	4.A\	-sti-	.	.
8F/	8F\	.	-le-	.	8c/	8A\	-ti-	.	.
2F/	2F\	.	-ra	.	2c/	2A\	-a	.	.
!!LO:PB:g=original
=8	=8	=8	=8	=8	=8	=8	=8	=8	=8
2A/	2F\	.	et	.	2e-/	2c\	tu-	.	.
2B-/	2G\	.	e-	.	2d/	2B-\	-a	.	.
=9	=9	=9	=9	=9	=9	=9	=9	=9	=9
2E-/	2C\	.	-ru-	.	4d/	4B-\	li-	.	.
.	.	.	.	.	4c/	4A\	.	.	.
4D/	4D\	.	-as	.	4B-/	4G\	-be-	.	.
4D/	4D\	.	.	.	4A/	4F#X\	-ra	.	.
=10	=10	=10	=10	=10	=10	=10	=10	=10	=10
1D	1GG	.	me	-vum	1B-	1G	me	.	.
*v	*v	*	*	*	*	*	*	*	*
*	*	*	*	*v	*v	*	*	*
==	==	==	==	==	==	==	==
*-	*-	*-	*-	*-	*-	*-	*-
!!!system-decoration: {(s1,s2)}
!!!ENC: Andrzej Gręziak
!!!END: 2023-10-27
!!!EED: Marta Chmielewska
!!!EEV: 2024-04-18
